Newaita-dark/apps/24/com.github.harisvsulaiman.pushy.svg

<svg height="24pt" viewBox="0 0 24 24" width="24pt" xmlns="http://www.w3.org/2000/svg" xmlns:xlink="http://www.w3.org/1999/xlink"><linearGradient id="a"><stop offset="0" stop-opacity=".313725"/><stop offset=".222222" stop-opacity=".27451"/><stop offset="1" stop-opacity="0"/></linearGradient><radialGradient id="b" cx="450.90894" cy="189.57936" gradientTransform="matrix(.00000013 -.0585994 -.105479 -.00000008 33.392364 47.696499)" gradientUnits="userSpaceOnUse" r="21.166656" xlink:href="#a"/><radialGradient id="c" cx="450.90894" cy="189.57936" gradientTransform="matrix(-.00000013 .0585994 .105479 .00000008 -9.57759 -5.645611)" gradientUnits="userSpaceOnUse" r="21.166656" xlink:href="#a"/><radialGradient id="d" cx="450.90894" cy="189.57936" gradientTransform="matrix(-.00000013 -.0585994 .105479 -.00000008 -9.57759 47.696499)" gradientUnits="userSpaceOnUse" r="21.166656" xlink:href="#a"/><radialGradient id="e" cx="450.90894" cy="189.57936" gradientTransform="matrix(.00000013 .0585994 -.105479 .00000008 33.392363 -5.645611)" gradientUnits="userSpaceOnUse" r="21.166656" xlink:href="#a"/><linearGradient id="f" gradientTransform="matrix(.01002 0 0 .0468795 9.349039 10.079088)" gradientUnits="userSpaceOnUse" x1="255.32306" x2="255.32304" y1="233.5" y2="254.66666"><stop offset="0" stop-opacity=".27451"/><stop offset="1" stop-opacity="0"/></linearGradient><linearGradient id="g"><stop offset="0" stop-color="#81c784"/><stop offset="1" stop-color="#66bb6a"/></linearGradient><linearGradient id="h" gradientUnits="userSpaceOnUse" x1="254" x2="254" xlink:href="#g" y1="-168.66667" y2="233.5"/><linearGradient id="i" gradientUnits="userSpaceOnUse" x1="11.9073748" x2="11.9073748" xlink:href="#g" y1="6.14121950953" y2="17.05630445"/><radialGradient id="j" cx="11.907393" cy="11.59876362495" gradientUnits="userSpaceOnUse" r="5.45755481247"><stop offset="0" stop-color="#fff" stop-opacity=".196078"/><stop offset="1" stop-color="#cbcbcb" stop-opacity="0"/></radialGradient><path d="m13.644531 21.027344h1.984375v-.996094h-1.984375zm0 0" fill="url(#b)"/><path d="m10.171875 21.027344h-1.984375v.992187h1.984375zm0 0" fill="url(#c)"/><path d="m10.171875 21.027344h-1.984375v-.996094h1.984375zm0 0" fill="url(#d)"/><path d="m13.644531 21.027344h1.984375v.992187h-1.984375zm0 0" fill="url(#e)"/><path d="m10.171875 20.777344h3.472656v1.242187h-3.472656zm0 0" fill="url(#f)"/><path d="m253.975747-168.671091c111.072726 0 201.147458 89.991406 201.147458 201.064133 0 111.072726-90.074732 201.147458-201.147458 201.147458-110.989402 0-201.064133-90.074732-201.064133-201.147458 0-111.072727 90.074731-201.064133 201.064133-201.064133zm0 0" fill="url(#h)" stroke="#333" stroke-linecap="round" stroke-width="3" transform="matrix(.0468795 0 0 .0468795 0 10.079087)"/><path d="m11.90625 21.027344c-5.222656 0-9.425781-4.207032-9.425781-9.429688 0-.03125 0-.058594 0-.089844.050781 5.179688 4.234375 9.332032 9.425781 9.332032s9.378906-4.152344 9.425781-9.332032c0 .03125.003907.058594.003907.089844 0 5.222656-4.207032 9.429688-9.429688 9.429688zm0 0" fill-opacity=".196078"/><path d="m11.90625 2.171875c-5.222656 0-9.425781 4.203125-9.425781 9.425781v.09375c.050781-5.179687 4.234375-9.335937 9.425781-9.335937s9.378906 4.15625 9.425781 9.335937c0-.03125.003907-.0625.003907-.09375 0-5.222656-4.207032-9.425781-9.429688-9.425781zm0 0" fill="#fff" fill-opacity=".392157"/><path d="m11.90625 2.101562c-5.257812 0-9.496094 4.238282-9.496094 9.496094 0 5.261719 4.238282 9.5 9.496094 9.5 5.261719 0 9.5-4.238281 9.5-9.5 0-5.257812-4.238281-9.496094-9.5-9.496094zm0 .140626c5.1875 0 9.359375 4.171874 9.359375 9.355468 0 5.1875-4.171875 9.359375-9.359375 9.359375-5.183594 0-9.355469-4.171875-9.355469-9.359375 0-5.183594 4.171875-9.355468 9.355469-9.355468zm0 0" fill="#212121"/><path d="m11.90625 3.660156c4.386719 0 7.9375 3.554688 7.9375 7.9375 0 4.386719-3.550781 7.9375-7.9375 7.9375-4.382812 0-7.9375-3.550781-7.9375-7.9375 0-4.382812 3.554688-7.9375 7.9375-7.9375zm0 0" fill="#e0e0e0"/><path d="m11.90625 6.140625c3.015625 0 5.457031 2.445313 5.457031 5.457031 0 3.015625-2.441406 5.457032-5.457031 5.457032-3.011719 0-5.457031-2.441407-5.457031-5.457032 0-3.011718 2.445312-5.457031 5.457031-5.457031zm0 0" fill="url(#i)"/><path d="m11.90625 6.203125c-2.683594 0-4.902344 1.917969-5.367188 4.460937.53125-2.460937 2.710938-4.296874 5.335938-4.296874 3.023438 0 5.457031 2.433593 5.457031 5.457031 0 .339843-.03125.675781-.089843.996093.082031-.375.121093-.761718.121093-1.160156 0-3.023437-2.433593-5.457031-5.457031-5.457031zm0 0" fill="#fff" fill-opacity=".392157"/><path d="m6.457031 11.847656c-.003906.082032-.007812.164063-.007812.246094 0 3.023438 2.433593 5.457031 5.457031 5.457031s5.457031-2.433593 5.457031-5.457031c0-.082031 0-.164062-.003906-.246094-.128906 2.90625-2.511719 5.207032-5.453125 5.207032-2.9375 0-5.320312-2.300782-5.449219-5.207032zm0 0" fill-opacity=".235294"/><path d="m253.975747-84.012509c64.32719 0 116.40555 52.161686 116.40555 116.405551 0 64.32719-52.07836 116.40555-116.40555 116.40555-64.243865 0-116.405551-52.07836-116.405551-116.40555 0-64.243865 52.161686-116.405551 116.405551-116.405551zm0 0" fill="none" stroke="#212121" stroke-linecap="round" stroke-width="3" transform="matrix(.0468795 0 0 .0468795 0 10.079087)"/><path d="m11.90625 6.140625c3.015625 0 5.457031 2.445313 5.457031 5.457031 0 3.015625-2.441406 5.457032-5.457031 5.457032-3.011719 0-5.457031-2.441407-5.457031-5.457032 0-3.011718 2.445312-5.457031 5.457031-5.457031zm0 0" fill="url(#j)"/><path d="m11.90625 3.660156c-4.398438 0-7.9375 3.539063-7.9375 7.9375v.125c.066406-4.339844 3.582031-7.8125 7.9375-7.8125 4.359375 0 7.871094 3.472656 7.9375 7.8125 0-.042968 0-.082031 0-.125 0-4.398437-3.539062-7.9375-7.9375-7.9375zm0 0" fill="#fff" fill-opacity=".992157"/><path d="m3.972656 11.796875c-.003906.050781-.003906.101563-.003906.152344 0 4.398437 3.539062 7.9375 7.9375 7.9375s7.9375-3.539063 7.9375-7.9375c0-.050781 0-.101563 0-.152344-.082031 4.324219-3.589844 7.78125-7.9375 7.78125-4.34375 0-7.851562-3.457031-7.933594-7.78125zm0 0" fill-opacity=".235294"/><path d="m253.975747-136.924123c93.574397 0 169.317164 75.826093 169.317164 169.317165 0 93.574397-75.742767 169.317164-169.317164 169.317164-93.491073 0-169.317165-75.742767-169.317165-169.317164 0-93.491072 75.826092-169.317165 169.317165-169.317165zm0 0" fill="none" stroke="#212121" stroke-linecap="round" stroke-width="3" transform="matrix(.0468795 0 0 .0468795 0 10.079087)"/></svg>

<?xml version="1.0" encoding="UTF-8"?>
<svg xmlns="http://www.w3.org/2000/svg" xmlns:xlink="http://www.w3.org/1999/xlink" width="24pt" height="24pt" viewBox="0 0 24 24" version="1.1">
<defs>
<radialGradient id="radial0" gradientUnits="userSpaceOnUse" cx="450.90894" cy="189.57936" fx="450.90894" fy="189.57936" r="21.166656" gradientTransform="matrix(0.000000130628,-0.0585994,-0.105479,-0.0000000761539,33.392364,47.696499)">
<stop offset="0" style="stop-color:rgb(0%,0%,0%);stop-opacity:0.313725;"/>
<stop offset="0.222222" style="stop-color:rgb(0%,0%,0%);stop-opacity:0.27451;"/>
<stop offset="1" style="stop-color:rgb(0%,0%,0%);stop-opacity:0;"/>
</radialGradient>
<radialGradient id="radial1" gradientUnits="userSpaceOnUse" cx="450.90894" cy="189.57936" fx="450.90894" fy="189.57936" r="21.166656" gradientTransform="matrix(-0.000000130628,0.0585994,0.105479,0.0000000761539,-9.57759,-5.645611)">
<stop offset="0" style="stop-color:rgb(0%,0%,0%);stop-opacity:0.313725;"/>
<stop offset="0.222222" style="stop-color:rgb(0%,0%,0%);stop-opacity:0.27451;"/>
<stop offset="1" style="stop-color:rgb(0%,0%,0%);stop-opacity:0;"/>
</radialGradient>
<radialGradient id="radial2" gradientUnits="userSpaceOnUse" cx="450.90894" cy="189.57936" fx="450.90894" fy="189.57936" r="21.166656" gradientTransform="matrix(-0.000000130628,-0.0585994,0.105479,-0.0000000761539,-9.57759,47.696499)">
<stop offset="0" style="stop-color:rgb(0%,0%,0%);stop-opacity:0.313725;"/>
<stop offset="0.222222" style="stop-color:rgb(0%,0%,0%);stop-opacity:0.27451;"/>
<stop offset="1" style="stop-color:rgb(0%,0%,0%);stop-opacity:0;"/>
</radialGradient>
<radialGradient id="radial3" gradientUnits="userSpaceOnUse" cx="450.90894" cy="189.57936" fx="450.90894" fy="189.57936" r="21.166656" gradientTransform="matrix(0.000000130628,0.0585994,-0.105479,0.0000000761539,33.392363,-5.645611)">
<stop offset="0" style="stop-color:rgb(0%,0%,0%);stop-opacity:0.313725;"/>
<stop offset="0.222222" style="stop-color:rgb(0%,0%,0%);stop-opacity:0.27451;"/>
<stop offset="1" style="stop-color:rgb(0%,0%,0%);stop-opacity:0;"/>
</radialGradient>
<linearGradient id="linear0" gradientUnits="userSpaceOnUse" x1="255.32306" y1="233.5" x2="255.32304" y2="254.66666" gradientTransform="matrix(0.01002,0,0,0.0468795,9.349039,10.079088)">
<stop offset="0" style="stop-color:rgb(0%,0%,0%);stop-opacity:0.27451;"/>
<stop offset="1" style="stop-color:rgb(0%,0%,0%);stop-opacity:0;"/>
</linearGradient>
<linearGradient id="linear1" gradientUnits="userSpaceOnUse" x1="254" y1="-168.66667" x2="254" y2="233.5" gradientTransform="matrix(1,0,0,1,0,0)">
<stop offset="0" style="stop-color:rgb(50.588235%,78.039216%,51.764706%);stop-opacity:1;"/>
<stop offset="1" style="stop-color:rgb(40%,73.333333%,41.568627%);stop-opacity:1;"/>
</linearGradient>
<linearGradient id="linear2" gradientUnits="userSpaceOnUse" x1="254" y1="-168.66667" x2="254" y2="233.5" gradientTransform="matrix(0.0271407,0,0,0.0271407,5.013637,10.718951)">
<stop offset="0" style="stop-color:rgb(50.588235%,78.039216%,51.764706%);stop-opacity:1;"/>
<stop offset="1" style="stop-color:rgb(40%,73.333333%,41.568627%);stop-opacity:1;"/>
</linearGradient>
<radialGradient id="radial4" gradientUnits="userSpaceOnUse" cx="254" cy="32.416656" fx="254" fy="32.416656" r="116.41666" gradientTransform="matrix(0.0468795,0,0,0.0468795,0,10.079087)">
<stop offset="0" style="stop-color:rgb(100%,100%,100%);stop-opacity:0.196078;"/>
<stop offset="1" style="stop-color:rgb(79.607843%,79.607843%,79.607843%);stop-opacity:0;"/>
</radialGradient>
</defs>
<g id="surface1">
<path style=" stroke:none;fill-rule:nonzero;fill:url(#radial0);" d="M 13.644531 21.027344 L 15.628906 21.027344 L 15.628906 20.03125 L 13.644531 20.03125 Z M 13.644531 21.027344 "/>
<path style=" stroke:none;fill-rule:nonzero;fill:url(#radial1);" d="M 10.171875 21.027344 L 8.1875 21.027344 L 8.1875 22.019531 L 10.171875 22.019531 Z M 10.171875 21.027344 "/>
<path style=" stroke:none;fill-rule:nonzero;fill:url(#radial2);" d="M 10.171875 21.027344 L 8.1875 21.027344 L 8.1875 20.03125 L 10.171875 20.03125 Z M 10.171875 21.027344 "/>
<path style=" stroke:none;fill-rule:nonzero;fill:url(#radial3);" d="M 13.644531 21.027344 L 15.628906 21.027344 L 15.628906 22.019531 L 13.644531 22.019531 Z M 13.644531 21.027344 "/>
<path style=" stroke:none;fill-rule:nonzero;fill:url(#linear0);" d="M 10.171875 20.777344 L 13.644531 20.777344 L 13.644531 22.019531 L 10.171875 22.019531 Z M 10.171875 20.777344 "/>
<path style="fill-rule:nonzero;fill:url(#linear1);stroke-width:3;stroke-linecap:round;stroke-linejoin:miter;stroke:rgb(20%,20%,20%);stroke-opacity:1;stroke-miterlimit:4;" d="M 253.975747 -168.671091 C 365.048473 -168.671091 455.123205 -78.679685 455.123205 32.393042 C 455.123205 143.465768 365.048473 233.5405 253.975747 233.5405 C 142.986345 233.5405 52.911614 143.465768 52.911614 32.393042 C 52.911614 -78.679685 142.986345 -168.671091 253.975747 -168.671091 Z M 253.975747 -168.671091 " transform="matrix(0.0468795,0,0,0.0468795,0,10.079087)"/>
<path style=" stroke:none;fill-rule:nonzero;fill:rgb(0%,0%,0%);fill-opacity:0.196078;" d="M 11.90625 21.027344 C 6.683594 21.027344 2.480469 16.820312 2.480469 11.597656 C 2.480469 11.566406 2.480469 11.539062 2.480469 11.507812 C 2.53125 16.6875 6.714844 20.839844 11.90625 20.839844 C 17.097656 20.839844 21.285156 16.6875 21.332031 11.507812 C 21.332031 11.539062 21.335938 11.566406 21.335938 11.597656 C 21.335938 16.820312 17.128906 21.027344 11.90625 21.027344 Z M 11.90625 21.027344 "/>
<path style=" stroke:none;fill-rule:nonzero;fill:rgb(100%,100%,100%);fill-opacity:0.392157;" d="M 11.90625 2.171875 C 6.683594 2.171875 2.480469 6.375 2.480469 11.597656 C 2.480469 11.628906 2.480469 11.660156 2.480469 11.691406 C 2.53125 6.511719 6.714844 2.355469 11.90625 2.355469 C 17.097656 2.355469 21.285156 6.511719 21.332031 11.691406 C 21.332031 11.660156 21.335938 11.628906 21.335938 11.597656 C 21.335938 6.375 17.128906 2.171875 11.90625 2.171875 Z M 11.90625 2.171875 "/>
<path style=" stroke:none;fill-rule:nonzero;fill:rgb(12.941176%,12.941176%,12.941176%);fill-opacity:1;" d="M 11.90625 2.101562 C 6.648438 2.101562 2.410156 6.339844 2.410156 11.597656 C 2.410156 16.859375 6.648438 21.097656 11.90625 21.097656 C 17.167969 21.097656 21.40625 16.859375 21.40625 11.597656 C 21.40625 6.339844 17.167969 2.101562 11.90625 2.101562 Z M 11.90625 2.242188 C 17.09375 2.242188 21.265625 6.414062 21.265625 11.597656 C 21.265625 16.785156 17.09375 20.957031 11.90625 20.957031 C 6.722656 20.957031 2.550781 16.785156 2.550781 11.597656 C 2.550781 6.414062 6.722656 2.242188 11.90625 2.242188 Z M 11.90625 2.242188 "/>
<path style=" stroke:none;fill-rule:nonzero;fill:rgb(87.843137%,87.843137%,87.843137%);fill-opacity:1;" d="M 11.90625 3.660156 C 16.292969 3.660156 19.84375 7.214844 19.84375 11.597656 C 19.84375 15.984375 16.292969 19.535156 11.90625 19.535156 C 7.523438 19.535156 3.96875 15.984375 3.96875 11.597656 C 3.96875 7.214844 7.523438 3.660156 11.90625 3.660156 Z M 11.90625 3.660156 "/>
<path style=" stroke:none;fill-rule:nonzero;fill:url(#linear2);" d="M 11.90625 6.140625 C 14.921875 6.140625 17.363281 8.585938 17.363281 11.597656 C 17.363281 14.613281 14.921875 17.054688 11.90625 17.054688 C 8.894531 17.054688 6.449219 14.613281 6.449219 11.597656 C 6.449219 8.585938 8.894531 6.140625 11.90625 6.140625 Z M 11.90625 6.140625 "/>
<path style=" stroke:none;fill-rule:nonzero;fill:rgb(100%,100%,100%);fill-opacity:0.392157;" d="M 11.90625 6.203125 C 9.222656 6.203125 7.003906 8.121094 6.539062 10.664062 C 7.070312 8.203125 9.25 6.367188 11.875 6.367188 C 14.898438 6.367188 17.332031 8.800781 17.332031 11.824219 C 17.332031 12.164062 17.300781 12.5 17.242188 12.820312 C 17.324219 12.445312 17.363281 12.058594 17.363281 11.660156 C 17.363281 8.636719 14.929688 6.203125 11.90625 6.203125 Z M 11.90625 6.203125 "/>
<path style=" stroke:none;fill-rule:nonzero;fill:rgb(0%,0%,0%);fill-opacity:0.235294;" d="M 6.457031 11.847656 C 6.453125 11.929688 6.449219 12.011719 6.449219 12.09375 C 6.449219 15.117188 8.882812 17.550781 11.90625 17.550781 C 14.929688 17.550781 17.363281 15.117188 17.363281 12.09375 C 17.363281 12.011719 17.363281 11.929688 17.359375 11.847656 C 17.230469 14.753906 14.847656 17.054688 11.90625 17.054688 C 8.96875 17.054688 6.585938 14.753906 6.457031 11.847656 Z M 6.457031 11.847656 "/>
<path style="fill:none;stroke-width:3;stroke-linecap:round;stroke-linejoin:miter;stroke:rgb(12.941176%,12.941176%,12.941176%);stroke-opacity:1;stroke-miterlimit:4;" d="M 253.975747 -84.012509 C 318.302937 -84.012509 370.381297 -31.850823 370.381297 32.393042 C 370.381297 96.720232 318.302937 148.798592 253.975747 148.798592 C 189.731882 148.798592 137.570196 96.720232 137.570196 32.393042 C 137.570196 -31.850823 189.731882 -84.012509 253.975747 -84.012509 Z M 253.975747 -84.012509 " transform="matrix(0.0468795,0,0,0.0468795,0,10.079087)"/>
<path style=" stroke:none;fill-rule:nonzero;fill:url(#radial4);" d="M 11.90625 6.140625 C 14.921875 6.140625 17.363281 8.585938 17.363281 11.597656 C 17.363281 14.613281 14.921875 17.054688 11.90625 17.054688 C 8.894531 17.054688 6.449219 14.613281 6.449219 11.597656 C 6.449219 8.585938 8.894531 6.140625 11.90625 6.140625 Z M 11.90625 6.140625 "/>
<path style=" stroke:none;fill-rule:nonzero;fill:rgb(100%,100%,100%);fill-opacity:0.992157;" d="M 11.90625 3.660156 C 7.507812 3.660156 3.96875 7.199219 3.96875 11.597656 C 3.96875 11.640625 3.96875 11.679688 3.96875 11.722656 C 4.035156 7.382812 7.550781 3.910156 11.90625 3.910156 C 16.265625 3.910156 19.777344 7.382812 19.84375 11.722656 C 19.84375 11.679688 19.84375 11.640625 19.84375 11.597656 C 19.84375 7.199219 16.304688 3.660156 11.90625 3.660156 Z M 11.90625 3.660156 "/>
<path style=" stroke:none;fill-rule:nonzero;fill:rgb(0%,0%,0%);fill-opacity:0.235294;" d="M 3.972656 11.796875 C 3.96875 11.847656 3.96875 11.898438 3.96875 11.949219 C 3.96875 16.347656 7.507812 19.886719 11.90625 19.886719 C 16.304688 19.886719 19.84375 16.347656 19.84375 11.949219 C 19.84375 11.898438 19.84375 11.847656 19.84375 11.796875 C 19.761719 16.121094 16.253906 19.578125 11.90625 19.578125 C 7.5625 19.578125 4.054688 16.121094 3.972656 11.796875 Z M 3.972656 11.796875 "/>
<path style="fill:none;stroke-width:3;stroke-linecap:round;stroke-linejoin:miter;stroke:rgb(12.941176%,12.941176%,12.941176%);stroke-opacity:1;stroke-miterlimit:4;" d="M 253.975747 -136.924123 C 347.550144 -136.924123 423.292911 -61.09803 423.292911 32.393042 C 423.292911 125.967439 347.550144 201.710206 253.975747 201.710206 C 160.484674 201.710206 84.658582 125.967439 84.658582 32.393042 C 84.658582 -61.09803 160.484674 -136.924123 253.975747 -136.924123 Z M 253.975747 -136.924123 " transform="matrix(0.0468795,0,0,0.0468795,0,10.079087)"/>
</g>
</svg>
